X:1
T:Title
%%score { ( 1 3 ) | 2 }
L:1/8
M:4/4
K:Bb
V:1 treble nm="Grand Piano"
V:3 treble 
V:2 bass 
V:1
 z4 z2[Q:1/4=108] F2 | [DB]2 [EB]2 [DB]2 DE | [F,DF]2 [DG]2 [DF]2 [DF]2 | F2 c2 A2 E2 | %4
[M:3/4] [Fd]6 |[M:1/4] [F,F]2 |[M:4/4] [DB]2 [EB]2 [DB]2 DE | [F,DF]2 [B,DG]2 [B,DF]2 [DFB]2 | %8
 [CFA]2 [Fc]2 [=Ec]2 E2 |[M:3/4] F6 |[M:1/4] F2 |[M:4/4] [Fd]2 [Fd]2 [Fd]2 [B,FB]2 | z4 z2 F2 | %13
 G2 B2 [GB]2 [Gc]2 |[M:3/4] [^Fd]6 |[M:1/4] d2 |[M:4/4] e2 c2 A2 F2 | %17
[M:9/8] [DB]2 [Fd]- [Fd] [Ff]2 [Ge]3 | %18
[M:4/4] d2 B2 B2 A2[Q:1/4=106][Q:1/4=105][Q:1/4=103][Q:1/4=102][Q:1/4=100][Q:1/4=98][Q:1/4=97][Q:1/4=95][Q:1/4=94][Q:1/4=92][Q:1/4=91][Q:1/4=89][Q:1/4=87][Q:1/4=86][Q:1/4=84][Q:1/4=83] | %19
[M:3/4] [DB]6 |] %20
V:2
 z4 z2 F,2 | [B,,F,]2 [B,,G,]2 [B,,F,]2 D,E, | B,,2 [B,,B,]2 [B,,B,]2 [B,,B,]2 | %3
 [F,A,E]2 [F,A,E]2 [F,CE]2 [F,A,]2 |[M:3/4] [B,,B,]6 |[M:1/4] z2 | %6
[M:4/4] [B,,F,]2 [B,,G,]2 [B,,F,]2 D,E, | B,,2 B,,2 B,,2 B,,2 | C,2 [C,A,]2 [C,G,]2 [C,B,C]2 | %9
[M:3/4] [F,A,C]6 |[M:1/4] [F,A,]2 |[M:4/4] [B,,B,]2 [B,,B,]2 [B,,B,]2 D,2 | %12
 E,F,G,A,[K:treble] [B,D]2 [B,D]2 | [G,B,D]2 [G,DG]2[K:bass] [E,E]2 [E,A,]2 |[M:3/4] [D,A,]6 | %15
[M:1/4][K:treble] [G,B,G]2 |[M:4/4] [A,CF]2[K:bass] [F,A,F]2 [F,CE]2 [F,A,E]2 | %17
[M:9/8] [B,,B,]2 [B,,B,]- [B,,B,] [D,B,]2 [E,B,]3 |[M:4/4] [F,B,F]2 [G,C=E]2 [^F,C_E]2 [=F,CE]2 | %19
[M:3/4] [B,,B,]6 |] %20
V:3
 x8 | x8 | x8 | x8 |[M:3/4] x6 |[M:1/4] x2 |[M:4/4] x8 | x8 | x8 |[M:3/4] x6 |[M:1/4] x2 | %11
[M:4/4] x8 | [B,EG]2 [B,EG]2 F2 z A, | x8 |[M:3/4] x6 |[M:1/4] x2 |[M:4/4] x8 |[M:9/8] x9 | %18
[M:4/4] x8 |[M:3/4] x6 |] %20

